X: 21213
M: 6/8
L: 1/8
K: G
V: 1 name="7"
(d2c) BAG | (e2d) cBA | G(cB) [BG](ed) | dcB A2D |\
(d2c) BAG | e2d cBA | G(cB) [BG](ed) | cBA G2 H|]
d |\
e2B (gfe) | f2B agf | g2e bag | f2e ^d^cB |\
e2B gfe | f2B agf | g2e bag | e3 "^D.C."z2 |]


